X:1
T:Comin' Thro the Rye
M:4/4
L:1/16
K:G
 G G3 G3 E A3 GA B3| D D3 E3 D G6 z D| G G3 G3 G A3 GA B3| D D3 E3 D G6-B-c|\
 d B3 G3 B A3 GA B3| d B3 G3 B e6f-g| d3 e d3 Be A3 A3 B| D D3 E3 D G6-B-c|\
 d B3 G3 B A3 GA B3| d B3 G3 B e6f-g| d3 e d3 Be A3 A3 B| D D3 E3 D G6 z2|\
